flags/in-as.svg

<svg width="512" height="512" viewBox="0 0 512 512" fill="none" xmlns="http://www.w3.org/2000/svg">
<rect width="512" height="512" fill="var(--flag-palette-white, #eeeeee)"/>
<path d="M256 112C234 112 216 130 216 152C209 140 196 132 182 132C171.391 132 161.217 136.214 153.716 143.716C146.214 151.217 142 161.391 142 172C142 182.609 146.214 192.783 153.716 200.284C161.217 207.786 171.391 212 182 212H188V338H186C176 338 166 346 166 358V374C166 384 176 394 186 394H188V396C188 408 198 416 208 416H304C316 416 324 408 324 396V394H326C338 394 346 384 346 374V358C346 346 338 338 326 338H324V212H330C340.609 212 350.783 207.786 358.284 200.284C365.786 192.783 370 182.609 370 172C370 161.391 365.786 151.217 358.284 143.716C350.783 136.214 340.609 132 330 132C316 133 303 141 296 154V152C296 130 278 112 256 112Z" fill="var(--flag-palette-black, #333333)"/>
<path d="M352 448H160C151.163 448 144 455.163 144 464C144 472.837 151.163 480 160 480H352C360.837 480 368 472.837 368 464C368 455.163 360.837 448 352 448Z" fill="var(--flag-palette-mid-grey-3, #acabb1)"/>
<path d="M328 32H184C170.745 32 160 42.7452 160 56C160 69.2548 170.745 80 184 80H328C341.255 80 352 69.2548 352 56C352 42.7452 341.255 32 328 32Z" fill="var(--flag-palette-mid-grey-3, #acabb1)"/>
</svg>

<svg xmlns="http://www.w3.org/2000/svg" width="512" height="512" fill="none"><g clip-path="url(#a)"><path fill="#EEE" d="M0 0h512v512H0z"/><path fill="#333" d="M256 112c-22 0-40 18-40 40-7-12-20-20-34-20a40 40 0 1 0 0 80h6v126h-2c-10 0-20 8-20 20v16c0 10 10 20 20 20h2v2c0 12 10 20 20 20h96c12 0 20-8 20-20v-2h2c12 0 20-10 20-20v-16c0-12-8-20-20-20h-2V212h6a40 40 0 1 0 0-80c-14 1-27 9-34 22v-2c0-22-18-40-40-40"/><path fill="var(--flag-palette-mid-grey-3, #acabb1)" d="M352 448H160a16 16 0 1 0 0 32h192a16 16 0 1 0 0-32M328 32H184a24 24 0 1 0 0 48h144a24 24 0 1 0 0-48"/></g><defs><clipPath id="a"><path fill="#fff" d="M0 0h512v512H0z"/></clipPath></defs></svg>
